mario/_inc/system.svg

<svg xmlns="http://www.w3.org/2000/svg"><path d="m598.644 184.729-35.334-49.941c-.837-1.182-2.124-1.914-3.513-2.088l-35.022-4.242 9.666-4.104c1.08-.453 1.776-1.497 1.776-2.679v-17.91c0-1.218-.558-2.364-1.461-3.165l-12.207-10.434c.381-.243.624-.627.729-1.077l7.2-43.683c.207-1.251.312-2.538.312-3.825v-10.434c0-1.182-.624-2.295-1.635-2.886l-39.264-23.094c-1.077-.624-2.331-.87-3.546-.696l-58.185 8.904c-1.08.174-1.878 1.113-1.878 2.226v3.687l-59.472-10.365c-1.08-.207-2.121.453-2.4 1.497l-3.687 12.903-28.275-15.27c-1.077-.591-2.364-.765-3.582-.555l-57.732 10.641c-1.077.21-1.878 1.182-1.878 2.262v10.434c0 .207.036.348.036.555l-35.37-4.626v-8.208c0-1.077-.837-1.98-1.914-2.121l-52.308-4.902c-1.041-.105-1.98.696-2.016 1.737l-.279 4.314-21.702-16.59c-.972-.765-2.226-1.077-3.441-.975l-44.622 4.245c-1.218.105-2.295.765-2.955 1.773l-24.033 35.823c-.696 1.008-1.08 2.259-1.08 3.513v16.866c0 1.182.627 2.295 1.635 2.922l7.617 4.626-12.069 16.068c-.729.972-1.146 2.226-1.146 3.441l.033 16.626c0 1.215.594 2.295 1.461 3.165l11.373 9.666-31.614-4.242c-1.32-.174-2.574.558-3.093 1.773l-52.899 123.675c-.591 1.356-.87 2.817-.87 4.275v14.607c0 1.359.801 2.574 2.052 3.095l60.966 26.05c1.08.453 2.367-.102 2.715-1.251l16.623-54.255 14.607 26.259c.522.939 1.809 1.077 2.505.207l19.056-23.37 3.27 54.393c.069 1.182 1.182 2.016 2.295 1.773l52.134-10.746 35.925 6.783c1.218.207 2.367-.591 2.541-1.809l4.521-26.745 18.78-2.817 6.015 28.971c.279 1.217 1.428 2.016 2.646 1.773l41.106-7.755.591 5.217c.141 1.218 1.254 2.121 2.469 2.016l49.353-4.452c1.251-.102 2.226-1.182 2.226-2.433l-.036-14.295 14.226 21.702c.693 1.077 2.085 1.497 3.267.939l36.204-16.206-.207 12.936c-.036 1.218 1.008 2.157 2.19 2.052l47.856-3.267c1.323-.072 2.4-1.08 2.61-2.367l6.153-34.605 8.208 23.652c.453 1.32 1.53 2.364 2.853 2.781l57.453 18.747c1.356.45 2.853.345 4.14-.246l54.567-24.867c1.287-.591 2.226-1.737 2.574-3.093l14.991-59.298c.345-1.461.555-2.922.555-4.383v-11.094c-.069-1.53-.486-2.922-1.356-4.104z" fill="#141414"/><g fill="#fff"><path d="m524.775 103.348-26.397-22.503 15.648-9.738c.837-.522 1.428-1.356 1.566-2.328l5.565-33.597c.138-.939-.279-1.809-1.077-2.295l-32.241-18.99c-.834-.522-1.842-.696-2.817-.555l-47.856 7.338c-.312.033-.555.207-.765.348l5.949 1.041c1.041.21 1.737 1.182 1.563 2.226l-4.938 29.388 6.435 62.637c.105.834.834 1.494 1.668 1.425l23.301-2.052c.837-.069 1.497-.798 1.497-1.668l-.939-30.189 1.113-.207 21.318 32.829c.489.765 1.428 1.044 2.262.696l28.866-12.207c.696-.279.834-1.113.279-1.599zm-36.066-37.179-18.258 2.955-.939-31.857 22.362 7.896z"/><path d="m427.986 89.365-34.641 5.115-2.469-17.007 27.963 4.242c.591.105 1.182-.348 1.251-.939l2.436-18.606c.069-.591-.348-1.113-.975-1.113l-28.761-.453 4.347-15.999 31.926 9.669c.558.174 1.182-.207 1.251-.765l3.861-22.989c.105-.591-.312-1.182-.939-1.32l-61.176-10.644c-.624-.102-1.215.279-1.425.87l-2.295 8.07 3.792 2.052c1.008.555 1.563 1.668 1.425 2.817l-5.913 40.272c-.207 1.218-.765 2.367-1.668 3.234l-9.357 8.973 4.488 27.582c.102.624.624 1.113 1.32 1.113l69.696 2.469c.591.033 1.008-.522.939-1.08l-3.756-24.621c-.138-.594-.729-1.011-1.32-.942z"/><path d="m363.123 34.417-32.484-17.529c-.87-.453-1.878-.627-2.85-.453l-47.577 8.766c-.837.174-1.428.939-1.323 1.809l.696 5.808 6.087.798c1.044.105 1.737 1.113 1.599 2.121l-4.242 25.182 6.642 54.741c.105.834.87 1.461 1.74 1.356l23.892-2.4c.834-.069 1.494-.834 1.425-1.671l-1.392-22.431 22.851-1.251c.975-.069 1.914-.453 2.643-1.149l17.424-16.659c.729-.696 1.182-1.599 1.323-2.607l4.728-32.172c.069-.903-.381-1.842-1.182-2.259zm-30.987 32.412-18.156 3.165-1.878-30.465 23.13 7.965z"/><path d="m276.108 41.023-35.163-4.659c-.765-.105-1.494.522-1.461 1.323l2.124 46.914-27.756 1.809 9.81-60.549c.102-.834-.453-1.566-1.287-1.635l-35.091-3.27c-.837-.069-1.566.558-1.635 1.392l-.105 1.599 3.894 2.991c.975.765 1.602 1.878 1.74 3.06l.21 1.74c.138 1.218-.21 2.469-.942 3.408l-6.12 7.755-1.599 25.878 2.295 1.494c1.008.696 1.773 1.74 2.052 2.922l.348 1.425c.312 1.218.207 2.469-.312 3.618l-5.844 13.179-.069 1.218c-.069.975.312 1.914 1.044 2.541l20.169 18.153c.732.66 1.671 1.044 2.679 1.077l44.205 1.113c.972.036 1.911-.381 2.538-1.113l15.579-17.772c.663-.765 1.113-1.668 1.254-2.676l8.625-51.159c.243-.906-.348-1.704-1.182-1.776z"/><path d="m138.453 31.669 27.198 18.642c.696.486 1.668.348 2.226-.348l13.251-16.8c.519-.66.417-1.632-.279-2.121l-27.996-21.459c-.765-.591-1.776-.867-2.748-.765l-38.013 3.618c-.975.105-1.809.627-2.367 1.425l-20.241 30.225c-.45.693-.276 1.632.453 2.052l49.422 30.117-10.122 13.737-26.361-22.188c-.627-.522-1.602-.417-2.088.243l-15.408 20.52c-.519.696-.417 1.668.246 2.226l27.09 23.058c.765.627 1.74.972 2.715.972l44.967-.765c.939-.033 1.773-.591 2.157-1.425l15.441-34.953c.348-.834.069-1.773-.66-2.259l-46.776-30.816z"/><path d="m587.931 187.129-30.57-43.194c-.66-.939-1.668-1.566-2.781-1.671l-59.577-7.269c-1.077-.102-2.226.315-2.85 1.182l-26.295 33.216-7.371 41.769 12.45 35.856c.348 1.077 1.218 1.878 2.295 2.226l49.734 16.242c1.077.348 2.295.276 3.339-.21l47.334-21.597c1.008-.453 1.773-1.392 2.052-2.469l12.867-50.916c.279-1.077.036-2.262-.627-3.165zm-69.903 35.787-19.998-21.144 14.364-24.693 26.64 7.128 3.303 26.607z"/><path d="m458.868 140.491-45.456-10.851c-.903-.21-1.773.453-1.809 1.356l-3.93 101.658 5.601 4.626c1.077.87 1.599 2.259 1.425 3.651l-.729 5.217c-.21 1.356-1.08 2.538-2.367 3.096l-4.659 2.085-.279 7.374c-.033.939.765 1.74 1.704 1.671l29.598-2.052c1.044-.072 1.911-.837 2.085-1.878l20.208-113.832c.207-.939-.417-1.878-1.392-2.121z"/><path d="m401.727 240.862-35.091-29.109 22.257-13.008c.975-.555 1.671-1.566 1.878-2.643l7.758-40.377c.207-1.08-.279-2.121-1.218-2.679l-45.213-26.397c-1.008-.591-2.157-.801-3.303-.627l-63.855 10.296c-1.008.174-1.668 1.077-1.563 2.052l8.901 76.479 15.444 44.376 22.431-2.016c1.008-.072 1.74-.939 1.704-1.95l-1.425-39.576 1.494-.315 28.623 43.683c.558.834 1.671 1.182 2.61.765l38.289-17.145c.765-.279.906-1.287.279-1.809zm-48.585-50.013-23.373 5.427-1.32-37.632 27.684 7.479z"/><path d="m293.913 250.462-38.778-111.327c-.348-1.008-1.287-1.74-2.364-1.878l-53.037-5.427c-1.008-.102-1.983.558-2.295 1.53l-17.496 60.411 13.008 64.41 11.304 2.121c.972.173 1.878-.45 2.052-1.425l4.068-24.207 35.544-5.355 6.018 29.039c.207.976 1.146 1.6 2.121 1.429l38.673-7.305c.939-.174 1.497-1.113 1.182-2.016zm-78.111-47.787 5.772-34.293 11.895.939 7.128 34.224z"/><path d="m158.313 137.848c-.21-1.044-1.08-1.842-2.121-1.983l-29.112-3.894c-1.077-.141-2.121.381-2.607 1.32l-19.302 37.317-13.287-39.576c-.348-1.008-1.251-1.773-2.328-1.914l-26.955-3.582c-1.044-.105-2.052.453-2.469 1.425l-47.403 110.946c-.384.903.036 1.947.939 2.364l43.368 18.501c.87.384 1.878-.069 2.157-1.008l20.415-66.636 19.128 34.362c.417.765 1.461.834 1.983.174l26.292-32.31 4.14 69.105c.033.939.939 1.598 1.842 1.425l46.95-9.702c.975-.21 1.602-1.149 1.428-2.121z"/></g></svg>

<?xml version="1.0" encoding="utf-8"?>
<svg version="1.1" xmlns="http://www.w3.org/2000/svg">
  <g>
    <path d="M 598.644 184.729 L 563.31 134.788 C 562.473 133.606 561.186 132.874 559.797 132.7 L 524.775 128.458 L 534.441 124.354 C 535.521 123.901 536.217 122.857 536.217 121.675 L 536.217 103.765 C 536.217 102.547 535.659 101.401 534.756 100.6 L 522.549 90.166 C 522.93 89.923 523.173 89.539 523.278 89.089 L 530.478 45.406 C 530.685 44.155 530.79 42.868 530.79 41.581 L 530.79 31.147 C 530.79 29.965 530.166 28.852 529.155 28.261 L 489.891 5.167 C 488.814 4.543 487.56 4.297 486.345 4.471 L 428.16 13.375 C 427.08 13.549 426.282 14.488 426.282 15.601 L 426.282 19.288 L 366.81 8.923 C 365.73 8.716 364.689 9.376 364.41 10.42 L 360.723 23.323 L 332.448 8.053 C 331.371 7.462 330.084 7.288 328.866 7.498 L 271.134 18.139 C 270.057 18.349 269.256 19.321 269.256 20.401 L 269.256 30.835 C 269.256 31.042 269.292 31.183 269.292 31.39 L 233.922 26.764 L 233.922 18.556 C 233.922 17.479 233.085 16.576 232.008 16.435 L 179.7 11.533 C 178.659 11.428 177.72 12.229 177.684 13.27 L 177.405 17.584 L 155.703 0.994 C 154.731 0.229 153.477 -0.083 152.262 0.019 L 107.64 4.264 C 106.422 4.369 105.345 5.029 104.685 6.037 L 80.652 41.86 C 79.956 42.868 79.572 44.119 79.572 45.373 L 79.572 62.239 C 79.572 63.421 80.199 64.534 81.207 65.161 L 88.824 69.787 L 76.755 85.855 C 76.026 86.827 75.609 88.081 75.609 89.296 L 75.642 105.922 C 75.642 107.137 76.236 108.217 77.103 109.087 L 88.476 118.753 L 56.862 114.511 C 55.542 114.337 54.288 115.069 53.769 116.284 L 0.87 239.959 C 0.279 241.315 0 242.776 0 244.234 L 0 258.841 C 0 260.2 0.801 261.415 2.052 261.936 L 63.018 287.986 C 64.098 288.439 65.385 287.884 65.733 286.735 L 82.356 232.48 L 96.963 258.739 C 97.485 259.678 98.772 259.816 99.468 258.946 L 118.524 235.576 L 121.794 289.969 C 121.863 291.151 122.976 291.985 124.089 291.742 L 176.223 280.996 L 212.148 287.779 C 213.366 287.986 214.515 287.188 214.689 285.97 L 219.21 259.225 L 237.99 256.408 L 244.005 285.379 C 244.284 286.596 245.433 287.395 246.651 287.152 L 287.757 279.397 L 288.348 284.614 C 288.489 285.832 289.602 286.735 290.817 286.63 L 340.17 282.178 C 341.421 282.076 342.396 280.996 342.396 279.745 L 342.36 265.45 L 356.586 287.152 C 357.279 288.229 358.671 288.649 359.853 288.091 L 396.057 271.885 L 395.85 284.821 C 395.814 286.039 396.858 286.978 398.04 286.873 L 445.896 283.606 C 447.219 283.534 448.296 282.526 448.506 281.239 L 454.659 246.634 L 462.867 270.286 C 463.32 271.606 464.397 272.65 465.72 273.067 L 523.173 291.814 C 524.529 292.264 526.026 292.159 527.313 291.568 L 581.88 266.701 C 583.167 266.11 584.106 264.964 584.454 263.608 L 599.445 204.31 C 599.79 202.849 600 201.388 600 199.927 L 600 188.833 C 599.931 187.303 599.514 185.911 598.644 184.729 Z" style="fill: rgb(20, 20, 20);"/>
    <path class="st0" d="M 524.775 103.348 L 498.378 80.845 L 514.026 71.107 C 514.863 70.585 515.454 69.751 515.592 68.779 L 521.157 35.182 C 521.295 34.243 520.878 33.373 520.08 32.887 L 487.839 13.897 C 487.005 13.375 485.997 13.201 485.022 13.342 L 437.166 20.68 C 436.854 20.713 436.611 20.887 436.401 21.028 L 442.35 22.069 C 443.391 22.279 444.087 23.251 443.913 24.295 L 438.975 53.683 L 445.41 116.32 C 445.515 117.154 446.244 117.814 447.078 117.745 L 470.379 115.693 C 471.216 115.624 471.876 114.895 471.876 114.025 L 470.937 83.836 L 472.05 83.629 L 493.368 116.458 C 493.857 117.223 494.796 117.502 495.63 117.154 L 524.496 104.947 C 525.192 104.668 525.33 103.834 524.775 103.348 Z M 488.709 66.169 L 470.451 69.124 L 469.512 37.267 L 491.874 45.163 L 488.709 66.169 Z" style="fill: rgb(255, 255, 255);"/>
    <path class="st1" d="M 427.986 89.365 L 393.345 94.48 L 390.876 77.473 L 418.839 81.715 C 419.43 81.82 420.021 81.367 420.09 80.776 L 422.526 62.17 C 422.595 61.579 422.178 61.057 421.551 61.057 L 392.79 60.604 L 397.137 44.605 L 429.063 54.274 C 429.621 54.448 430.245 54.067 430.314 53.509 L 434.175 30.52 C 434.28 29.929 433.863 29.338 433.236 29.2 L 372.06 18.556 C 371.436 18.454 370.845 18.835 370.635 19.426 L 368.34 27.496 L 372.132 29.548 C 373.14 30.103 373.695 31.216 373.557 32.365 L 367.644 72.637 C 367.437 73.855 366.879 75.004 365.976 75.871 L 356.619 84.844 L 361.107 112.426 C 361.209 113.05 361.731 113.539 362.427 113.539 L 432.123 116.008 C 432.714 116.041 433.131 115.486 433.062 114.928 L 429.306 90.307 C 429.168 89.713 428.577 89.296 427.986 89.365 Z" style="fill: rgb(255, 255, 255);"/>
    <path class="st2" d="M 363.123 34.417 L 330.639 16.888 C 329.769 16.435 328.761 16.261 327.789 16.435 L 280.212 25.201 C 279.375 25.375 278.784 26.14 278.889 27.01 L 279.585 32.818 L 285.672 33.616 C 286.716 33.721 287.409 34.729 287.271 35.737 L 283.029 60.919 L 289.671 115.66 C 289.776 116.494 290.541 117.121 291.411 117.016 L 315.303 114.616 C 316.137 114.547 316.797 113.782 316.728 112.945 L 315.336 90.514 L 338.187 89.263 C 339.162 89.194 340.101 88.81 340.83 88.114 L 358.254 71.455 C 358.983 70.759 359.436 69.856 359.577 68.848 L 364.305 36.676 C 364.374 35.773 363.924 34.834 363.123 34.417 Z M 332.136 66.829 L 313.98 69.994 L 312.102 39.529 L 335.232 47.494 L 332.136 66.829 Z" style="fill: rgb(255, 255, 255);"/>
    <path class="st0" d="M 276.108 41.023 L 240.945 36.364 C 240.18 36.259 239.451 36.886 239.484 37.687 L 241.608 84.601 L 213.852 86.41 L 223.662 25.861 C 223.764 25.027 223.209 24.295 222.375 24.226 L 187.284 20.956 C 186.447 20.887 185.718 21.514 185.649 22.348 L 185.544 23.947 L 189.438 26.938 C 190.413 27.703 191.04 28.816 191.178 29.998 L 191.388 31.738 C 191.526 32.956 191.178 34.207 190.446 35.146 L 184.326 42.901 L 182.727 68.779 L 185.022 70.273 C 186.03 70.969 186.795 72.013 187.074 73.195 L 187.422 74.62 C 187.734 75.838 187.629 77.089 187.11 78.238 L 181.266 91.417 L 181.197 92.635 C 181.128 93.61 181.509 94.549 182.241 95.176 L 202.41 113.329 C 203.142 113.989 204.081 114.373 205.089 114.406 L 249.294 115.519 C 250.266 115.555 251.205 115.138 251.832 114.406 L 267.411 96.634 C 268.074 95.869 268.524 94.966 268.665 93.958 L 277.29 42.799 C 277.533 41.893 276.942 41.095 276.108 41.023 Z" style="fill: rgb(255, 255, 255);"/>
    <path class="st3" d="M 138.453 31.669 L 165.651 50.311 C 166.347 50.797 167.319 50.659 167.877 49.963 L 181.128 33.163 C 181.647 32.503 181.545 31.531 180.849 31.042 L 152.853 9.583 C 152.088 8.992 151.077 8.716 150.105 8.818 L 112.092 12.436 C 111.117 12.541 110.283 13.063 109.725 13.861 L 89.484 44.086 C 89.034 44.779 89.208 45.718 89.937 46.138 L 139.359 76.255 L 129.237 89.992 L 102.876 67.804 C 102.249 67.282 101.274 67.387 100.788 68.047 L 85.38 88.567 C 84.861 89.263 84.963 90.235 85.626 90.793 L 112.716 113.851 C 113.481 114.478 114.456 114.823 115.431 114.823 L 160.398 114.058 C 161.337 114.025 162.171 113.467 162.555 112.633 L 177.996 77.68 C 178.344 76.846 178.065 75.907 177.336 75.421 L 130.56 44.605 L 138.453 31.669 Z" style="fill: rgb(255, 255, 255);"/>
    <path class="st1" d="M 587.931 187.129 L 557.361 143.935 C 556.701 142.996 555.693 142.369 554.58 142.264 L 495.003 134.995 C 493.926 134.893 492.777 135.31 492.153 136.177 L 465.858 169.393 L 458.487 211.162 L 470.937 247.018 C 471.285 248.095 472.155 248.896 473.232 249.244 L 522.966 265.486 C 524.043 265.834 525.261 265.762 526.305 265.276 L 573.639 243.679 C 574.647 243.226 575.412 242.287 575.691 241.21 L 588.558 190.294 C 588.837 189.217 588.594 188.032 587.931 187.129 Z M 518.028 222.916 L 498.03 201.772 L 512.394 177.079 L 539.034 184.207 L 542.337 210.814 L 518.028 222.916 Z" style="fill: rgb(255, 255, 255);"/>
    <path class="st3" d="M 458.868 140.491 L 413.412 129.64 C 412.509 129.43 411.639 130.093 411.603 130.996 L 407.673 232.654 L 413.274 237.28 C 414.351 238.15 414.873 239.539 414.699 240.931 L 413.97 246.148 C 413.76 247.504 412.89 248.686 411.603 249.244 L 406.944 251.329 L 406.665 258.703 C 406.632 259.642 407.43 260.443 408.369 260.374 L 437.967 258.322 C 439.011 258.25 439.878 257.485 440.052 256.444 L 460.26 142.612 C 460.467 141.673 459.843 140.734 458.868 140.491 Z" style="fill: rgb(255, 255, 255);"/>
    <path class="st0" d="M 401.727 240.862 L 366.636 211.753 L 388.893 198.745 C 389.868 198.19 390.564 197.179 390.771 196.102 L 398.529 155.725 C 398.736 154.645 398.25 153.604 397.311 153.046 L 352.098 126.649 C 351.09 126.058 349.941 125.848 348.795 126.022 L 284.94 136.318 C 283.932 136.492 283.272 137.395 283.377 138.37 L 292.278 214.849 L 307.722 259.225 L 330.153 257.209 C 331.161 257.137 331.893 256.27 331.857 255.259 L 330.432 215.683 L 331.926 215.368 L 360.549 259.051 C 361.107 259.885 362.22 260.233 363.159 259.816 L 401.448 242.671 C 402.213 242.392 402.354 241.384 401.727 240.862 Z M 353.142 190.849 L 329.769 196.276 L 328.449 158.644 L 356.133 166.123 L 353.142 190.849 Z" style="fill: rgb(255, 255, 255);"/>
    <path class="st1" d="M 293.913 250.462 L 255.135 139.135 C 254.787 138.127 253.848 137.395 252.771 137.257 L 199.734 131.83 C 198.726 131.728 197.751 132.388 197.439 133.36 L 179.943 193.771 L 192.951 258.181 L 204.255 260.302 C 205.227 260.475 206.133 259.852 206.307 258.877 L 210.375 234.67 L 245.919 229.315 L 251.937 258.354 C 252.144 259.33 253.083 259.954 254.058 259.783 L 292.731 252.478 C 293.67 252.304 294.228 251.365 293.913 250.462 Z M 215.802 202.675 L 221.574 168.382 L 233.469 169.321 L 240.597 203.545 L 215.802 202.675 Z" style="fill: rgb(255, 255, 255);"/>
    <path class="st2" d="M 158.313 137.848 C 158.103 136.804 157.233 136.006 156.192 135.865 L 127.08 131.971 C 126.003 131.83 124.959 132.352 124.473 133.291 L 105.171 170.608 L 91.884 131.032 C 91.536 130.024 90.633 129.259 89.556 129.118 L 62.601 125.536 C 61.557 125.431 60.549 125.989 60.132 126.961 L 12.729 237.907 C 12.345 238.81 12.765 239.854 13.668 240.271 L 57.036 258.772 C 57.906 259.156 58.914 258.703 59.193 257.764 L 79.608 191.128 L 98.736 225.49 C 99.153 226.255 100.197 226.324 100.719 225.664 L 127.011 193.354 L 131.151 262.459 C 131.184 263.398 132.09 264.057 132.993 263.884 L 179.943 254.182 C 180.918 253.972 181.545 253.033 181.371 252.061 L 158.313 137.848 Z" style="fill: rgb(255, 255, 255);"/>
  </g>
</svg>
